public/images/site/compass-logo.svg

<svg fill="none" height="120" viewBox="0 0 512 120" width="512" xmlns="http://www.w3.org/2000/svg"><path d="m151.716 48.2763c-.523 13.085-10.282 20.9361-25.966 20.9361-18.908 0-29.7998-11.2531-29.7998-30.7061s10.2828-29.74595 27.1858-29.74595c8.975 0 14.464 2.52995 17.95 8.28695v-7.15295h9.933v21.10995h-10.718c-.261-4.012-.871-6.019-2.526-8.374-2.44-3.663-6.71-5.67-11.938-5.67-11.065 0-17.078 7.938-17.078 22.419 0 14.48 6.013 21.633 16.904 21.633 8.103 0 12.634-4.187 13.767-12.736zm55.503-30.182c4.705 5.234 6.883 11.776 6.883 20.412 0 19.104-11.414 30.7061-30.322 30.7061-9.846 0-17.862-3.1411-23.351-9.0731-4.967-5.408-7.232-12.125-7.232-21.633 0-18.406 11.588-29.83296 30.235-29.83296 10.282 0 18.211 3.14036 23.787 9.42096zm-38.077 6.368c-2.004 3.489-3.137 8.723-3.137 14.655 0 14.044 6.274 21.895 17.601 21.895 5.228 0 9.933-2.007 12.896-5.583 3.224-3.838 4.705-8.985 4.705-16.399 0-6.281-1.046-11.0789-3.137-14.6549-2.788-4.624-8.365-7.5021-14.464-7.5021s-11.676 2.878-14.464 7.589zm63.258-6.63v42.307h6.971v7.938h-24.049v-7.938h7.145v-42.307h-7.145v-7.93795h26.402l9.41 29.83295c2.178 6.979 2.875 9.77 4.095 16.487.523-2.791.872-4.798 1.133-5.757.261-.96 1.481-5.06 3.398-11.253l9.062-29.30995h26.314v7.93795h-7.232v42.307h7.232v7.938h-25.53v-7.938h6.884v-42.307l-16.73 50.245h-10.891zm85.913 42.307h9.236v7.938h-29.015v-7.938h7.493v-42.307h-7.493v-7.93795h31.978c12.372 0 19.779 6.71695 19.779 17.96995 0 6.281-2.527 11.689-6.797 14.655-3.485 2.442-7.493 3.3151-14.464 3.3151h-10.717zm7.406-22.244c4.27 0 6.535-.523 8.452-2.093 2.091-1.657 3.311-4.623 3.311-7.938 0-6.717-3.834-10.032-11.85-10.032h-7.319v20.063zm77.374 22.244h5.054v7.938h-25.617v-7.938h7.58l-3.746-9.857h-23.875l-3.833 9.857h7.667v7.938h-24.136v-7.938h5.054l20.825-50.24495h14.464zm-19.866-17.62-8.8-22.855-8.888 22.855zm38.512 5.757c1.22 9.072 4.705 12.736 12.199 12.736 6.709 0 10.63-2.879 10.63-7.851 0-4.013-1.83-5.845-8.452-8.113l-10.543-3.75c-10.717-3.751-14.29-7.677-14.29-15.615 0-10.642 7.407-17.00996 19.867-17.00996 7.406 0 12.024 2.18106 14.551 6.71706v-5.49605h9.933v18.84195h-9.933c0-7.851-3.921-11.863-11.676-11.863-6.186 0-9.846 2.791-9.846 7.414 0 3.49 1.917 5.234 8.452 7.502l10.282 3.577c6.447 2.181 9.933 4.274 11.937 7.24 1.742 2.442 2.614 5.583 2.614 9.334 0 10.904-7.581 17.2721-20.476 17.2721-8.017 0-12.896-2.3561-15.249-7.3281v6.193h-9.933v-19.801zm50.537 0c1.22 9.072 4.705 12.736 12.199 12.736 6.709 0 10.63-2.879 10.63-7.851 0-4.013-1.83-5.845-8.452-8.113l-10.543-3.75c-10.717-3.751-14.29-7.677-14.29-15.615 0-10.642 7.407-17.00996 19.866-17.00996 7.407 0 12.025 2.18106 14.552 6.71706v-5.49605h9.933v18.84195h-9.933c0-7.851-3.921-11.863-11.676-11.863-6.187 0-9.846 2.791-9.846 7.414 0 3.49 1.917 5.234 8.452 7.502l10.281 3.577c6.448 2.181 9.933 4.274 11.938 7.24 1.742 2.442 2.614 5.583 2.614 9.334 0 10.904-7.581 17.2721-20.477 17.2721-8.016 0-12.895-2.3561-15.248-7.3281v6.193h-9.933v-19.801z" fill="#ffa706"/><path d="m76.1722 33.7265c-.82-1.239-3.172-1.588-4.915-2.041-1.0674-.1544-2.0587-.6426-2.8318-1.3947s-1.2884-1.7295-1.4722-2.7923c-.473-1.3063-1.0257-2.5824-1.655-3.821-.243-.6889-.243-1.4402 0-2.129.853-2.076 1.951-4.047 2.823-6.123.0771-.2973.0874-.6079.0302-.9096-.0573-.3018-.1806-.587-.3612-.8354-1.5-1.744-3.19-3.175-4.706-4.81503-.2461-.33551-.6147-.56035-1.0257-.62569s-.8312.03408-1.1693.27669h-.018c-1.742.96-3.746 1.74503-5.576 2.72203-.4066.2485-.8739.3799-1.3505.3799-.4765 0-.9438-.1314-1.3505-.3799-1.743-.873-3.608-1.44803-5.35-2.30303-.7136-.34863-1.2902-.92591-1.638-1.63999-.837-1.93701-1.534-3.96001-2.179-5.98401-.0801-.412834-.3175-.778342-.6622-1.019261-.3447-.2409182-.7695-.3383666-1.1848-.2717433h-6.57c-.3606.0480828-.7053.1785373-1.0074.3812563-.302.202719-.5534.472267-.7346.787748-.854 2.006-1.481 4.11699-2.283 6.14099-.236.58532-.6589 1.07616-1.203 1.39601-2.317 1.064-4.705 2.80803-6.97 2.75603-2.266-.052-4.636-1.90203-6.97-2.96603l-.14-.105c-.1355-.11918-.2934-.21021-.4644-.26776-.1711-.05755-.3519-.08047-.5319-.06744s-.3556.06175-.5166.14334c-.161.08158-.3041.1944-.4211.33186-.035.052-.088.105-.123.157-1.568 1.62303-3.171 3.07103-4.73996 4.81503-.20424.277-.34188.5975-.40223.9363-.06035.3389-.0418.6871.05423 1.0177.854 2.076 1.95196 4.048 2.83996 6.124.21.645.21 1.326 0 1.971-.749 1.919-1.54996 3.908-2.43996 5.653-.31249.67-.83968 1.2165-1.498 1.553-1.952.82-3.973 1.535-5.995 2.18-.4516.0731-.85632.3209-1.126843.6898-.270522.369-.3851536.8295-.3191593 1.2822 0 2.128.0870003 4.257 0 6.385-.0415105.4386.0845183.8766.3527593 1.2261.268242.3495.658813.5845 1.093243.6579 1.97.628 3.939 1.309 5.82 2.111.75.332 1.36.907 1.743 1.623.8764 1.7981 1.65026 3.6444 2.31796 5.53.2614.7454.2614 1.5575 0 2.303-.871 2.059-1.96896 3.96-2.78796 5.984-.09589.3335-.11439.6845-.05408 1.0262.06031.3418.19783.6652.40208.9458 1.44696 1.622 3.11996 3.07 4.58396 4.675.575.733 1.62.873 2.37.349 1.882-.994 3.834-1.867 5.75-2.774l1.098-.471c1.4448.8322 2.9758 1.5048 4.566 2.006 1.2091.2301 2.3166.8307 3.169 1.7186.8524.8878 1.4074 2.0189 1.588 3.2364.436 1.605.82 3.716 1.987 4.519s3.276.279 4.984.296c3.904 0 4.078 0 5.228-3.733.3262-1.4994 1.0427-2.8861 2.077-4.0196s2.3497-1.9737 3.813-2.4354c1.2577-.6245 2.6515-.9245 4.0546-.8728 1.4032.0517 2.7712.4535 3.9794 1.1688 3.868 2.181 3.99 1.972 7.127-1.151 3.485-3.385 3.573-3.489 1.29-7.694-.6362-1.1408-.9889-2.4178-1.0284-3.7233-.0395-1.3056.2353-2.6016.8014-3.7787.473-1.5574 1.3626-2.956 2.5727-4.0445s2.6947-1.8256 4.2933-2.1315c3.486-.942 3.486-1.134 3.486-4.658-.157-1.867.365-4.17-.523-5.478zm-37.955 27.914c-13.366-.105-24.206-10.887-24.397-24.268 0-13.486 10.926-24.424 24.414-24.407 13.471 0 24.38 10.939 24.38 24.407-.157 13.399-11.014 24.198-24.397 24.285z" fill="#00c605"/><path d="m52.5592 24.5326c-6.326 2.25-12.652 4.484-18.978 6.752l3.033 2.808c.4962-.1546 1.0134-.2308 1.533-.226 2.475-.088 4.548 1.849 4.653 4.326 0 .471-.087.942-.244 1.379l3.05 2.808c2.404-5.7236 4.7973-11.4516 7.18-17.184.087-.227.156-.454.296-.803zm-13.105 17.795c-.4328.1106-.8773.169-1.324.174-1.1881.0431-2.3456-.3827-3.2227-1.1855-.877-.8028-1.4033-1.9182-1.4653-3.1055 0-.419.07-.855.192-1.256l-3.05-2.809c-2.16 5.146-4.322 10.31-6.465 15.457l-.994 2.408.54-.157 18.856-6.717zm280.3928 49.355c-8.47 3.018-16.956 6.002-25.426 9.0554l4.061 3.768c.664-.212 1.359-.312 2.056-.296 1.593-.051 3.142.529 4.31 1.614 1.168 1.084 1.861 2.585 1.929 4.178 0 .628-.105 1.256-.331 1.849l4.095 3.768c3.224-7.676 6.431-15.353 9.619-23.0294.122-.296.209-.61.401-1.081l-.697.192z" fill="#ee7d33"/><path d="m342.797 89.7284c8.696 0 13.523 4.641 13.523 12.9626 0 4.292-1.429 7.781-4.06 9.944-2.51 2.059-5.489 2.896-10.351 2.896h-12.251v-3.524h3.276v-18.7536h-3.276v-3.525zm-4.409 22.2786h2.545c3.624 0 5.646-.61 7.232-2.285 1.585-1.623 2.439-4.135 2.439-7.188 0-3.0526-.854-5.5296-2.544-7.1876-1.516-1.465-3.398-2.093-6.378-2.093h-3.276v18.7536zm32.692-11.34v-3.0526h3.712v9.6646h-3.712v-3.053h-4.217v7.781h10.317v-4.728h4.409v8.235h-23.456v-3.524h3.276v-18.7546h-3.276v-3.524h23.456v7.886h-4.409v-4.362h-10.317v7.4316zm28.249 11.34h3.781v3.524h-12.982v-3.524h3.746v-18.7536h-5.106v5.373h-4.409v-8.898h24.502v8.898h-4.409v-5.373h-5.141v18.7536zm20.633 0h3.206v3.524h-12.024v-3.524h3.363v-18.7536h-3.363v-3.525h14.098c3.625 0 5.873.733 7.302 2.408.958 1.169 1.516 2.669 1.516 4.362 0 2.093-.819 4.0296-2.161 5.1456-.924.803-2.004 1.204-4.026 1.431v.157c2.632.157 3.782 1.082 4.566 3.629l1.708 5.146h2.631v3.524h-7.144l-2.632-7.972c-.662-2.042-1.708-2.792-3.816-2.792h-3.207v7.24zm3.206-10.764c3.433 0 5.49-1.5526 5.49-4.1346s-1.586-3.873-4.636-3.873h-4.06v8.0076zm38.513-7.8856c2.091 2.321 3.05 5.217 3.05 9.0546 0 8.479-5.054 13.608-13.454 13.608-4.356 0-7.911-1.396-10.351-4.03-2.196-2.408-3.207-5.374-3.207-9.596 0-8.1636 5.141-13.2236 13.401-13.2236 4.566 0 8.069 1.396 10.544 4.17zm-16.869 2.827c-.889 1.552-1.394 3.8726-1.394 6.5066 0 6.228 2.788 9.7 7.807 9.7 2.318 0 4.409-.89 5.716-2.477 1.429-1.71 2.091-3.978 2.091-7.275 0-2.7916-.47-4.9196-1.394-6.4896-1.237-2.059-3.712-3.333-6.413-3.333s-5.176 1.274-6.413 3.368zm25.966-2.949h-3.399v-3.524h12.286v3.524h-3.433v18.7546h3.433v3.524h-12.286v-3.524h3.399zm26.226 18.7716h3.782v3.524h-12.983v-3.524h3.747v-18.7536h-5.106v5.373h-4.409v-8.898h24.502v8.898h-4.409v-5.373h-5.141v18.7536z" fill="#fff"/></svg>

<svg width="512" height="120" viewBox="0 0 512 120" fill="none" xmlns="http://www.w3.org/2000/svg">
<path d="M151.716 48.2763C151.193 61.3613 141.434 69.2124 125.75 69.2124C106.842 69.2124 95.9502 57.9593 95.9502 38.5063C95.9502 19.0533 106.233 8.76035 123.136 8.76035C132.111 8.76035 137.6 11.2903 141.086 17.0473V9.89435H151.019V31.0043H140.301C140.04 26.9923 139.43 24.9853 137.775 22.6303C135.335 18.9673 131.065 16.9603 125.837 16.9603C114.772 16.9603 108.759 24.8983 108.759 39.3793C108.759 53.8593 114.772 61.0123 125.663 61.0123C133.766 61.0123 138.297 56.8253 139.43 48.2763H151.716ZM207.219 18.0943C211.924 23.3283 214.102 29.8703 214.102 38.5063C214.102 57.6103 202.688 69.2124 183.78 69.2124C173.934 69.2124 165.918 66.0713 160.429 60.1393C155.462 54.7313 153.197 48.0143 153.197 38.5063C153.197 20.1003 164.785 8.67334 183.432 8.67334C193.714 8.67334 201.643 11.8137 207.219 18.0943ZM169.142 24.4623C167.138 27.9513 166.005 33.1853 166.005 39.1173C166.005 53.1613 172.279 61.0123 183.606 61.0123C188.834 61.0123 193.539 59.0053 196.502 55.4293C199.726 51.5913 201.207 46.4443 201.207 39.0303C201.207 32.7493 200.161 27.9514 198.07 24.3754C195.282 19.7514 189.705 16.8733 183.606 16.8733C177.507 16.8733 171.93 19.7513 169.142 24.4623ZM232.4 17.8323V60.1393H239.371V68.0773H215.322V60.1393H222.467V17.8323H215.322V9.89435H241.724L251.134 39.7273C253.312 46.7063 254.009 49.4973 255.229 56.2143C255.752 53.4233 256.101 51.4163 256.362 50.4573C256.623 49.4973 257.843 45.3973 259.76 39.2043L268.822 9.89435H295.136V17.8323H287.904V60.1393H295.136V68.0773H269.606V60.1393H276.49V17.8323L259.76 68.0773H248.869L232.4 17.8323ZM318.313 60.1393H327.549V68.0773H298.534V60.1393H306.027V17.8323H298.534V9.89435H330.512C342.884 9.89435 350.291 16.6113 350.291 27.8643C350.291 34.1453 347.764 39.5533 343.494 42.5193C340.009 44.9613 336.001 45.8344 329.03 45.8344H318.313V60.1393ZM325.719 37.8953C329.989 37.8953 332.254 37.3723 334.171 35.8023C336.262 34.1453 337.482 31.1793 337.482 27.8643C337.482 21.1473 333.648 17.8323 325.632 17.8323H318.313V37.8953H325.719ZM403.093 60.1393H408.147V68.0773H382.53V60.1393H390.11L386.364 50.2823H362.489L358.656 60.1393H366.323V68.0773H342.187V60.1393H347.241L368.066 9.89435H382.53L403.093 60.1393ZM383.227 42.5193L374.427 19.6643L365.539 42.5193H383.227ZM421.739 48.2763C422.959 57.3483 426.444 61.0123 433.938 61.0123C440.647 61.0123 444.568 58.1333 444.568 53.1613C444.568 49.1483 442.738 47.3163 436.116 45.0483L425.573 41.2983C414.856 37.5473 411.283 33.6213 411.283 25.6833C411.283 15.0413 418.69 8.67334 431.15 8.67334C438.556 8.67334 443.174 10.8544 445.701 15.3904V9.89435H455.634V28.7363H445.701C445.701 20.8853 441.78 16.8733 434.025 16.8733C427.839 16.8733 424.179 19.6643 424.179 24.2873C424.179 27.7773 426.096 29.5213 432.631 31.7893L442.913 35.3663C449.36 37.5473 452.846 39.6403 454.85 42.6063C456.592 45.0483 457.464 48.1893 457.464 51.9403C457.464 62.8443 449.883 69.2124 436.988 69.2124C428.971 69.2124 424.092 66.8563 421.739 61.8843V68.0773H411.806V48.2763H421.739ZM472.276 48.2763C473.496 57.3483 476.981 61.0123 484.475 61.0123C491.184 61.0123 495.105 58.1333 495.105 53.1613C495.105 49.1483 493.275 47.3163 486.653 45.0483L476.11 41.2983C465.393 37.5473 461.82 33.6213 461.82 25.6833C461.82 15.0413 469.227 8.67334 481.686 8.67334C489.093 8.67334 493.711 10.8544 496.238 15.3904V9.89435H506.171V28.7363H496.238C496.238 20.8853 492.317 16.8733 484.562 16.8733C478.375 16.8733 474.716 19.6643 474.716 24.2873C474.716 27.7773 476.633 29.5213 483.168 31.7893L493.449 35.3663C499.897 37.5473 503.382 39.6403 505.387 42.6063C507.129 45.0483 508.001 48.1893 508.001 51.9403C508.001 62.8443 500.42 69.2124 487.524 69.2124C479.508 69.2124 474.629 66.8563 472.276 61.8843V68.0773H462.343V48.2763H472.276Z" fill="#FFA706"/>
<path d="M76.1722 33.7265C75.3522 32.4875 73.0002 32.1385 71.2572 31.6855C70.1898 31.5311 69.1985 31.0429 68.4254 30.2908C67.6523 29.5387 67.137 28.5613 66.9532 27.4985C66.4802 26.1922 65.9275 24.9161 65.2982 23.6775C65.0552 22.9886 65.0552 22.2373 65.2982 21.5485C66.1512 19.4725 67.2492 17.5015 68.1212 15.4255C68.1983 15.1282 68.2086 14.8176 68.1514 14.5159C68.0941 14.2141 67.9708 13.9289 67.7902 13.6805C66.2902 11.9365 64.6002 10.5055 63.0842 8.86547C62.8381 8.52996 62.4695 8.30512 62.0585 8.23978C61.6475 8.17444 61.2273 8.27386 60.8892 8.51647H60.8712C59.1292 9.47647 57.1252 10.2615 55.2952 11.2385C54.8886 11.487 54.4213 11.6184 53.9447 11.6184C53.4682 11.6184 53.0009 11.487 52.5942 11.2385C50.8512 10.3655 48.9862 9.79047 47.2442 8.93547C46.5306 8.58684 45.954 8.00956 45.6062 7.29548C44.7692 5.35847 44.0722 3.33547 43.4272 1.31147C43.3471 0.898636 43.1097 0.533128 42.765 0.292209C42.4203 0.0512908 41.9955 -0.0461576 41.5802 0.0204657H35.0102C34.6496 0.0685485 34.3049 0.199003 34.0028 0.401722C33.7008 0.604441 33.4494 0.873989 33.2682 1.18947C32.4142 3.19547 31.7872 5.30646 30.9852 7.33046C30.7492 7.91578 30.3263 8.40662 29.7822 8.72647C27.4652 9.79047 25.0772 11.5345 22.8122 11.4825C20.5462 11.4305 18.1762 9.58047 15.8422 8.51647L15.7022 8.41147C15.5667 8.29229 15.4088 8.20126 15.2378 8.14371C15.0667 8.08616 14.8859 8.06324 14.7059 8.07627C14.5259 8.0893 14.3503 8.13802 14.1893 8.21961C14.0283 8.30119 13.8852 8.41401 13.7682 8.55147C13.7332 8.60347 13.6802 8.65647 13.6452 8.70847C12.0772 10.3315 10.4742 11.7795 8.90524 13.5235C8.701 13.8005 8.56336 14.121 8.50301 14.4598C8.44266 14.7987 8.46121 15.1469 8.55724 15.4775C9.41124 17.5535 10.5092 19.5255 11.3972 21.6015C11.6072 22.2465 11.6072 22.9275 11.3972 23.5725C10.6482 25.4915 9.84724 27.4805 8.95724 29.2255C8.64475 29.8955 8.11756 30.442 7.45924 30.7785C5.50724 31.5985 3.48624 32.3135 1.46424 32.9585C1.01264 33.0316 0.60792 33.2794 0.337397 33.6483C0.066875 34.0173 -0.0477566 34.4778 0.0182377 34.9305C0.0182377 37.0585 0.105238 39.1875 0.0182377 41.3155C-0.0232728 41.7541 0.102756 42.1921 0.370997 42.5416C0.639239 42.8911 1.02981 43.1261 1.46424 43.1995C3.43424 43.8275 5.40324 44.5085 7.28424 45.3105C8.03424 45.6425 8.64424 46.2175 9.02724 46.9335C9.90364 48.7316 10.6775 50.5779 11.3452 52.4635C11.6066 53.2089 11.6066 54.021 11.3452 54.7665C10.4742 56.8255 9.37624 58.7265 8.55724 60.7505C8.46135 61.084 8.44285 61.435 8.50316 61.7767C8.56347 62.1185 8.70099 62.4419 8.90524 62.7225C10.3522 64.3445 12.0252 65.7925 13.4892 67.3975C14.0642 68.1305 15.1092 68.2705 15.8592 67.7465C17.7412 66.7525 19.6932 65.8795 21.6092 64.9725L22.7072 64.5015C24.152 65.3337 25.683 66.0063 27.2732 66.5075C28.4823 66.7376 29.5898 67.3382 30.4422 68.2261C31.2946 69.1139 31.8496 70.245 32.0302 71.4625C32.4662 73.0675 32.8502 75.1785 34.0172 75.9815C35.1842 76.7845 37.2932 76.2605 39.0012 76.2775C42.9052 76.2775 43.0792 76.2775 44.2292 72.5445C44.5554 71.0451 45.2719 69.6584 46.3062 68.5249C47.3405 67.3914 48.6559 66.5512 50.1192 66.0895C51.3769 65.465 52.7707 65.165 54.1738 65.2167C55.577 65.2684 56.945 65.6702 58.1532 66.3855C62.0212 68.5665 62.1432 68.3575 65.2802 65.2345C68.7652 61.8495 68.8532 61.7455 66.5702 57.5405C65.934 56.3997 65.5813 55.1227 65.5418 53.8172C65.5023 52.5116 65.7771 51.2156 66.3432 50.0385C66.8162 48.4811 67.7058 47.0825 68.9159 45.994C70.126 44.9055 71.6106 44.1684 73.2092 43.8625C76.6952 42.9205 76.6952 42.7285 76.6952 39.2045C76.5382 37.3375 77.0602 35.0345 76.1722 33.7265ZM38.2172 61.6405C24.8512 61.5355 14.0112 50.7535 13.8202 37.3725C13.8202 23.8865 24.7462 12.9485 38.2342 12.9655C51.7052 12.9655 62.6142 23.9045 62.6142 37.3725C62.4572 50.7715 51.6002 61.5705 38.2172 61.6575V61.6405Z" fill="#00C605"/>
<path d="M52.5592 24.5326C46.2332 26.7826 39.9072 29.0166 33.5812 31.2846L36.6142 34.0926C37.1104 33.938 37.6276 33.8618 38.1472 33.8666C40.6222 33.7786 42.6952 35.7156 42.8002 38.1926C42.8002 38.6636 42.7132 39.1346 42.5562 39.5716L45.6062 42.3796C48.0102 36.656 50.4035 30.928 52.7862 25.1956C52.8732 24.9686 52.9422 24.7416 53.0822 24.3926L52.5592 24.5326ZM39.4542 42.3276C39.0214 42.4382 38.5769 42.4966 38.1302 42.5016C36.9421 42.5447 35.7846 42.1189 34.9075 41.3161C34.0305 40.5133 33.5042 39.3979 33.4422 38.2106C33.4422 37.7916 33.5122 37.3556 33.6342 36.9546L30.5842 34.1456C28.4242 39.2916 26.2622 44.4556 24.1192 49.6026L23.1252 52.0106L23.6652 51.8536L42.5212 45.1366L39.4542 42.3276ZM319.847 91.6826C311.377 94.7006 302.891 97.6846 294.421 100.738L298.482 104.506C299.146 104.294 299.841 104.194 300.538 104.21C302.131 104.159 303.68 104.739 304.848 105.824C306.016 106.908 306.709 108.409 306.777 110.002C306.777 110.63 306.672 111.258 306.446 111.851L310.541 115.619C313.765 107.943 316.972 100.266 320.16 92.5896C320.282 92.2936 320.369 91.9796 320.561 91.5086L319.864 91.7006L319.847 91.6826Z" fill="#EE7D33"/>
<path d="M342.797 89.7284C351.493 89.7284 356.32 94.3694 356.32 102.691C356.32 106.983 354.891 110.472 352.26 112.635C349.75 114.694 346.771 115.531 341.909 115.531H329.658V112.007H332.934V93.2534H329.658V89.7284H342.797ZM338.388 112.007H340.933C344.557 112.007 346.579 111.397 348.165 109.722C349.75 108.099 350.604 105.587 350.604 102.534C350.604 99.4814 349.75 97.0044 348.06 95.3464C346.544 93.8814 344.662 93.2534 341.682 93.2534H338.406V112.007H338.388ZM371.08 100.667V97.6144H374.792V107.279H371.08V104.226H366.863V112.007H377.18V107.279H381.589V115.514H358.133V111.99H361.409V93.2354H358.133V89.7114H381.589V97.5974H377.18V93.2354H366.863V100.667H371.08ZM399.329 112.007H403.11V115.531H390.128V112.007H393.874V93.2534H388.768V98.6264H384.359V89.7284H408.861V98.6264H404.452V93.2534H399.311V112.007H399.329ZM419.962 112.007H423.168V115.531H411.144V112.007H414.507V93.2534H411.144V89.7284H425.242C428.867 89.7284 431.115 90.4614 432.544 92.1364C433.502 93.3054 434.06 94.8054 434.06 96.4984C434.06 98.5914 433.241 100.528 431.899 101.644C430.975 102.447 429.895 102.848 427.873 103.075V103.232C430.505 103.389 431.655 104.314 432.439 106.861L434.147 112.007H436.778V115.531H429.634L427.002 107.559C426.34 105.517 425.294 104.767 423.186 104.767H419.979V112.007H419.962ZM423.168 101.243C426.601 101.243 428.658 99.6904 428.658 97.1084C428.658 94.5264 427.072 93.2354 424.022 93.2354H419.962V101.243H423.168ZM461.681 93.3574C463.772 95.6784 464.731 98.5744 464.731 102.412C464.731 110.891 459.677 116.02 451.277 116.02C446.921 116.02 443.366 114.624 440.926 111.99C438.73 109.582 437.719 106.616 437.719 102.394C437.719 94.2304 442.86 89.1704 451.12 89.1704C455.686 89.1704 459.189 90.5664 461.664 93.3404L461.681 93.3574ZM444.812 96.1844C443.923 97.7364 443.418 100.057 443.418 102.691C443.418 108.919 446.206 112.391 451.225 112.391C453.543 112.391 455.634 111.501 456.941 109.914C458.37 108.204 459.032 105.936 459.032 102.639C459.032 99.8474 458.562 97.7194 457.638 96.1494C456.401 94.0904 453.926 92.8164 451.225 92.8164C448.524 92.8164 446.049 94.0904 444.812 96.1844ZM470.778 93.2354H467.379V89.7114H479.665V93.2354H476.232V111.99H479.665V115.514H467.379V111.99H470.778V93.2354ZM497.004 112.007H500.786V115.531H487.803V112.007H491.55V93.2534H486.444V98.6264H482.035V89.7284H506.537V98.6264H502.128V93.2534H496.987V112.007H497.004Z" fill="white"/>
</svg>
